X:42
T:Shores of Lough Gowen
S:Bernie Waugh
R:Jig
M:6/8
L:1/8
K:A Aeo
E|\
"Am"A2A AGE|~EGD ECE|"Dm"ABA "Em"AGE|"F"c2d "G"ecB|
"Am"A2A AGE|~EGD ECG|"F"cde fgf|"G"ecA A2:|
B|\
"C"cde ~g2e|"C"gea "G"~ged|"C"cEG cde|"Bb"fgf "Am"ecA|
"C"cde ~g2e|"Em"gea ~ged|"Dm"cde "Em"fgf|"F"ecA A2:|]

